X:1
T:Title
%%score 1 2 3 4
L:1/8
M:3/2
K:C
V:1 treble nm="Part_1"
V:2 treble-8 nm="Part_2"
V:3 bass nm="Part_3"
V:4 bass nm="Part_4"
V:1
 D3 C A,2 _B,2 A,2 D2- | DC _B,2 A,2 A4 GF | E6 F2 G4 | F2 D2 z2 A3 G F2 | E2 G3 F ED ^C3 B, | %5
 D4 z4 A,4- | A,4 D4 F4 | E2 A4 G2 E4 | D2 F3 E DC B,3 A, | C4 z2 G4 E2 | F2 A3 G F3 E D2- | %11
 DC A,4 D3 E F2 | E2 D4 G3 FED | F8 z4 | C6 D4 C2 | A,4 z2 C2 A,2 C2 | A,2 F,2 z2 C2 D2 C2- | %17
 C2 (3:2:2F4 G2 A6 | G3 F E2 D4 E2 | F3 E C2 D2 C2 F2- | FG A3 G FE D4 | E2 G3 F ED C2 G2 | %22
 F2 A3 G A2 F4 | E2 G3 F ED E2 C2 | B,2 D4 z4 F2- | F2 A4 G2 F4 | E2 G3 F G2 E2 G2 | F6 E2 D4 | %28
 C6 D4 C2 | A,4 z4 D4- | D2 (3:2:2F4 D2 F3 G A2- | AGFE F2 D2 z2 A2 | G2 E3 F G3 F E2 | %33
 D2 F3 E D2 C2 D2- | DC _B,2 A,4 z2 D2 | C2 D3 C A,4 D2 | E2 F3 G A3 G F2 | E4 z4 G4 | %38
 F3 DFG A4 D2- | D2 A3 G F3 E D2- | DC C4 (3:2:2D4 C2 A,2- | A,2 D3 E F6 | D4 C4 D4- | D4 F8 | %44
 E6 F2 G4 | F6 D6 | A,6 B,6 | C4 z4 E4- | E4 G8 | F8 D4- | D4 C4 F4 | E2 G3 F D3 C _B,2 | %52
 A,4 z4 A4- | A4 F8 | E2 A4 G2 E4 | F4 D4 z4 | A6 F6 | G6 E6 | D2 F4 ED C2 D2 | E4 D4 z2 G2- | %60
 GF E2 D2 G3 FED | F4 z2 C4 D2 | C2 A,3 _B, C2 D2 F2 | E2 D4 C2 _B,4 | A,4 z2 A,3 G,A,B, | %65
 C3 B, CD E3 D E2 | F3 D FG A3 GFE | D2 A3 G A2 F2 D2 | E2 G3 F G2 E2 C2 | D2 F3 DFG A4 | %70
 G2 G3 FED ^C3 B,/C/ | D4 z4 D4 | D6 CB, A,4 | D6 E2 F2 D2 | E2 A4 G2 E4 | F4 D4 z4 | %76
 A,4 B,2 A,4 D2- | D2 C2 D2 F3 G A2 | G2 E3 F G3 F E2 | D4 z2 A,3 B,CD | EF G3 FED ^C3 B,/C/ | %81
 D12 |] %82
V:2
[K:F] A3 G A2 DE FG A2 | B2 G2 F3 G A2 B2 | c6 BA G3 A | B2 A4 F2 A3 B | c3 B G4 A4 | %5
 z4 d3 B d2 Ad- | dc A4 F2 A2 B2 | c6 B2 A4- | A4 F4 G4 | E2 A4 G2 EF G2 | F3 D F3 G A4 | %11
 z4 A2 B4 AB | c2 d2 B4 c2 z2 | c6 d4 c2 | A4 z4 z4 | c3 A c2 A2 F2 z2 | c2 d2 c2 A2 B2 c2 | %17
 A8 A3 B | c6 B4 c2 | A4 z2 D2 A4- | A4 z2 A3 FAB | c4 B2 A4 G2 | A4 F4 A2 B2 | c4 G4 A4 | %24
 =B2 A3 G A2 D4 | A4 F3 G A2 F2 | G4 z4 G3 A | B2 A3 F A2 G2 FG | A6 B4 c2- | c4 A4 z2 A2 | %30
 A4 (3:2:2d4 c2 A4 | F3 G A2 B2 A2 F2 | G2 A2 G4 c4 | z2 A2 B>A FG A2 D2 | F2 G2 A2 d3 cBA | %35
 A4 D4 z2 A2 | B2 A2 d3 c A2 B2 | c3 A c2 BA G3 A | B2 A2 F3 DFG A2- | AGFE F2 D2 z2 A2 | %40
 B2 c2 A2 B3 A/G/FG | A2 B3 G A2 A4 | z2 D2 A4 (3:2:2B4 A2 | F2 G2 A2 d3 c AB | %44
 c2 G c2 B A2 G2 E2 | FG A3 G A2 B3 G | A2 F4 G6 | E4 (3:2:2A4 B2 c4- | c2 A2 G4 z2 G2 | A4 F8 | %50
 B4 A3 FAB c2- | cB G2 G8 | A2 d3 c BA A4 | F6 A4 B2 | c4 A2 B2 c2 A2 | A4 B6 A2 | %56
 F3 G A2 F2 A3 B | c4 G4 A4 | z2 d4 cB A2 B2 | c4 B6 A2 | z2 c2 B4 c4- | c2 A3 A G2 A2 D2 | %62
 AB c3 BAG F2 D2 | z2 D2 D4 E2 DE | FG A3 GFE D4 | C4 z4 G3 A | B2 A4 d4 cB | A4 z2 A4 B2 | %68
 c4 G6 A2- | A4 A6 F2 | G4 z2 G2 A4 | A4 c2 A3 G A2 | D8 z4 | A4 B2 G2 A3 B | c4 z4 A4 | A4 F6 D2 | %76
 F4 G2 A2 F4 | B2 A2 F2 B2 A3 B | c4 G6 A2 | B4 c4 A4 | G3 A B2 c2 A4 | [FA]12 |] %82
V:3
 D,12 | D,12 | C,12 | D,12 | E,12 | F,12 | D,12 | C,12 | D,12 | C,12 | D,12 | F,12 | G,12 | F,12 | %14
 F,12 | F,12 | F,12 | F,12 | G,12 | F,12 | F,12 | E,12 | D,12 | E,12 | F,12 | D,12 | C,12 | D,12 | %28
 F,12 | F,12 | D,12 | D,12 | E,12 | F,12 | D,12 | F,12 | D,12 | C,12 | D,12 | D,12 | F,12 | D,12 | %42
 F,12 | D,12 | C,12 | D,12 | D,12 | C,12 | C,12 | D,12 | F,12 | G,12 | F,12 | D,12 | C,12 | D,12 | %56
 D,12 | E,12 | F,12 | G,12 | G,12 | F,12 | F,12 | G,12 | F,12 | E,12 | D,12 | F,12 | E,12 | F,12 | %70
 E,12 | D,12 | F,12 | D,12 | C,12 | D,12 | D,12 | F,12 | E,12 | F,12 | E,12 | D,12 |] %82
V:4
[K:F] D,,3 E,, F,,2 G,,2 F,,2 D,,2 | G,,4 D,,3 E,, F,,2 G,,2 | A,,6 G,,F,, E,,4 | D,,8 z2 D,2 | %4
 C,8 A,,4 | D,,12- | D,,12 | A,,12 | D,,8 G,,4 | A,,3 G,, F,,2 E,,6 | D,,12 | D,6 B,,3 C, D,2 | %12
 C,2 B,,2 G,,4 C,4 | F,,3 G,, A,,2 B,,4 A,,2 | F,,6 B,,4 A,,2 | F,,12- | F,,8 B,,2 A,,2 | %17
 F,,4 D,,4 D,2 F,2 | C,6 G,,4 C,2 | D,3 C, A,,2 B,,2 A,,2 F,,2- | F,,2 D,,2 D,,4 z2 D,2 | %21
 C,3 B,, G,,2 A,,3 G,, E,,2 | F,,2 D,,2 D,,4 z2 D,2 | C,8 A,,4 | D,,12 | z4 z4 D,,4 | E,,12 | %27
 D,,8 G,,2 B,,2 | A,,2 F,,4 B,,4 A,,2 | F,,6 D,,2 D,,4 | z4 z4 D,,4 | D,,8 F,,4 | E,,2 A,,2 C,8 | %33
 D,4 B,,4 A,,2 B,,2- | B,,A,, G,,2 F,,2 D,,2 D,,4 | z2 D,,2 D,,8 | z4 z4 D,,4 | A,,6 G,,2 E,,4 | %38
 D,,12 | z4 z4 D,3 C, | B,,2 A,,2 F,,2 B,,3 C, D,2- | D,C,B,,A,, G,,2 D,,4 D,2- | %42
 D,C, B,,2 F,,4 B,,4- | B,,2 G,,2 D,,4 z2 D,,2 | A,,2 E,, A,,2 G,, F,,2 E,,4 | D,,4 z4 G,,4 | %46
 F,,2 D,,4 G,,6 | A,,8 z2 A,,2- | A,,2 G,,2 E,,8 | D,,4 z2 D,2 B,,4- | B,,4 F,,8 | C,6 B,,2 G,,4 | %52
 D,,12- | D,,12 | A,,4 F,,2 G,,2 A,,4 | F,,4 G,,6 F,,2 | D,,8 z2 D,2 | C,8 A,,4 | D,,8 F,,3 E,, | %59
 C,,2 C,2 G,,8 | C,4 G,,4 C,4 | F,,8 z2 B,,2 | A,,2 F,,6 B,,2 D,2 | C,2 B,,2 G,,4 z2 G,,2 | %64
 D,,8 z4 | A,,3 G,, A,,B,, C,3 B,, C,2 | D,4 z4 D,,4 | D,,8 z2 D,2 | C,6 C,4 A,,2 | D,,12 | %70
 E,,8 A,,4 | D,,8 z4 | D,,12- | D,,4 G,,4 D,,4 | A,,4 F,,2 G,,2 A,,4 | D,,12 | %76
 z2 D,,2 G,,2 D,,2 D,2 B,,2- | B,,A,, F,,2 B,,3 C,D,E, F,2 | C,4 z4 C,4 | %79
 B,,3 A,, F,,2 F,,3 G,, A,,B,, | C,3 B,, G,,2 A,,6 | D,,12 |] %82

